logos/tv.tvpsport.svg

<?xml version="1.0" encoding="UTF-8" standalone="no"?>
<!-- Created with Inkscape (http://www.inkscape.org/) -->

<svg
   xmlns:dc="http://purl.org/dc/elements/1.1/"
   xmlns:cc="http://creativecommons.org/ns#"
   xmlns:rdf="http://www.w3.org/1999/02/22-rdf-syntax-ns#"
   xmlns:svg="http://www.w3.org/2000/svg"
   xmlns="http://www.w3.org/2000/svg"
   xmlns:inkscape="http://www.inkscape.org/namespaces/inkscape"
   version="1.0"
   width="750"
   height="356.29706"
   viewBox="0 0 210 297"
   id="svg2"
   xml:space="preserve"
   style="fill-rule:evenodd"><metadata
   id="metadata16"><rdf:RDF><cc:Work
       rdf:about=""><dc:format>image/svg+xml</dc:format><dc:type
         rdf:resource="http://purl.org/dc/dcmitype/StillImage" /></cc:Work></rdf:RDF></metadata>
 <defs
   id="defs4">
  <style
   type="text/css"
   id="style6" />
 
  <metadata
   id="CorelCorpID_0Corel-Layer" />
  
 
   
   
   
   
  </defs>
 <g
   transform="matrix(0.9939795,0,0,0.9939795,17.022849,1.877745e-5)"
   id="g2188"><path
     d="m -14.96589,102.04131 c -44.65165,7.60976 -150.84503,29.17654 -184.54879,58.89256 -17.99774,15.86823 -9.34556,27.03148 9.17868,35.27405 79.08038,35.18765 178.571255,40.34493 256.076624,40.70031 109.480246,0.50203 228.538116,-7.67592 337.253016,-34.83843 -70.86701,31.25392 -249.77733,80.47267 -310.39135,96.7291 21.90106,-10.03481 38.26138,-18.10585 45.00499,-23.82466 6.20933,-5.26548 2.94378,-11.46324 -10.8632,-13.29318 C 61.273068,253.00443 -6.0367435,252.65447 -71.076328,242.79302 -114.01783,235.33519 -157.3,225.50229 -197.86639,208.93874 c -22.50241,-10.31371 -38.64393,-24.9375 -19.84725,-44.7178 31.18273,-32.81515 161.548597,-58.78923 202.747248,-62.17963 l 5.02e-4,0 z"
     inkscape:connector-curvature="0"
     id="_72860672"
     style="fill:#eb7d26;fill-opacity:1" /><g
     transform="translate(-12.592357,0)"
     id="g2184"><polygon
       points="140.327,107.375 140.327,145.716 61.8003,145.716 61.8003,107.375 61.8003,107.375 "
       transform="matrix(2.6421654,0,0,2.6421654,-158.48466,-283.70251)"
       id="_72860960"
       style="fill:#00458a;fill-opacity:1" /><path
       d="m 84.717946,18.968105 46.807814,0 0,61.875815 -46.807814,0 0,-61.875815 z m 50.249494,0 46.80781,0 0,61.875815 -46.80781,0 0,-61.875815 z m 10.13746,10.197173 0,42.110833 8.44806,0 0,-12.840924 1.81464,0.06288 c 11.45167,0 17.08371,-7.427655 17.08371,-14.855311 0,-7.23874 -5.44418,-14.477481 -16.27019,-14.477481 l -11.07622,0 0,0 z m 8.44806,8.183051 3.06623,0 c 4.81852,0.06288 7.25909,1.699441 7.57192,6.546229 -0.25048,5.035703 -3.12885,6.609377 -8.00999,6.735408 l -2.62816,0 0,-13.281637 z m -45.43098,35.249657 -19.39904,-43.936304 9.386557,0 9.699393,22.220082 0.31309,1.321876 0.31284,-1.321876 9.63677,-22.220082 9.44917,0 -19.39878,43.936304 z m -34.042185,-35.249657 0,-8.183051 -32.477497,0 0,8.183051 11.764506,0 0,33.927782 9.011105,0 0,-33.927782 11.701886,0 0,0 z m -39.611343,-18.380224 46.807809,0 0,61.875815 -46.807809,0 0,-61.875815 0,0 z m -3.441685,-3.02158 154.190163,0 0,67.918975 -154.190163,0 0,-67.918975 0,0 z"
       inkscape:connector-curvature="0"
       id="_72860888"
       style="fill:#ffffff" /></g><path
     d="m -25.37406,151.6752 -2.907304,15.18029 44.546432,0.0539 c 5.870299,-0.0196 8.336887,-1.77923 9.834966,-6.83237 2.497724,-8.42534 -0.524505,-8.45757 -7.812637,-8.46286 l -43.661457,0.061 0,0 z m -12.303073,-13.6201 -14.36616,64.93518 15.560723,-0.006 5.563748,-23.64288 48.20404,0.0148 c 12.8172,0.17069 19.283642,-3.77592 22.333211,-13.61376 4.703074,-15.17237 6.356073,-27.74273 -13.543962,-27.51075 l -63.7516,-0.17623 0,0 z m 296.788043,0.21771 -1.53048,13.11069 33.87003,-0.0589 -10.77765,51.03237 16.09686,-0.0494 10.28758,-50.80726 36.59205,-0.0391 1.57098,-13.19814 -86.10937,0.01 0,0 z m -315.267209,10.7124 c -1.353789,-5.30256 -2.29977,-11.08706 -14.408685,-11.18455 l -46.717106,0.0196 c -7.75087,0 -13.3622,1.36283 -17.438,6.68441 -3.98847,5.20718 -6.74489,13.98763 -5.66652,20.4538 1.50719,9.02669 10.1881,11.91009 18.19565,11.876 l 40.617456,-0.27188 c 7.92427,-0.10621 8.192598,1.61516 7.127895,6.36947 -1.067488,4.76779 -3.349286,7.83191 -13.074642,7.51881 l -35.836169,0.2769 c -2.21547,0.0169 -7.76833,-0.25919 -12.63873,-5.94619 l -12.09019,5.77815 c 4.89369,7.59807 11.76465,11.77798 22.74558,11.93043 l 42.911404,0.13475 c 7.243833,-0.23964 13.89532,-3.5006 17.212456,-9.10569 3.17057,-5.35726 4.86154,-12.62929 4.747374,-19.09757 -0.135176,-7.66968 -5.274663,-10.93513 -18.895832,-10.70474 l -41.238922,-0.41164 c -5.9032,-0.1477 -7.84199,-0.47956 -6.30114,-6.3058 1.34873,-5.09964 1.5839,-5.4846 6.95273,-5.72715 l 41.469522,-0.15668 c 3.534584,0.046 7.538993,-0.65156 8.456623,3.98887 l 13.869246,-6.11925 0,0 z m 234.439599,2.30978 -2.66987,15.72987 46.46017,-0.0325 c 7.47748,-0.1337 8.38169,-1.39586 9.47096,-8.25016 0.73612,-4.63304 0.7303,-7.68633 -6.17356,-7.52225 l -47.0877,0.075 0,0 z m -12.08994,-12.51488 -13.74875,64.58773 15.81032,-0.0684 4.59119,-24.28044 41.82012,-0.12762 9.94559,24.02521 16.25457,0.0227 -10.84625,-24.48415 c 7.14055,-0.39448 11.53074,-3.61792 13.85456,-8.26179 2.42001,-4.83675 4.39095,-14.30865 3.8824,-19.40908 -1.09027,-10.92853 -7.67847,-11.95025 -15.78551,-11.95606 l -65.77824,-0.0481 0,0 z m -46.24499,11.10898 -40.043337,-0.0415 c -5.026332,0.0206 -9.717003,0.98341 -12.202577,6.44107 -2.599993,5.70946 -5.377437,17.61637 -6.425433,22.76226 -1.353789,6.64848 -0.319462,10.0965 8.255377,10.45874 l 43.72601,0.27902 c 5.54805,0.22379 11.72794,-3.07971 13.66091,-8.52072 1.7745,-4.99449 4.21452,-16.17375 4.90255,-21.98995 0.92724,-7.83746 -4.99975,-9.87404 -11.8735,-9.38894 l 0,0 z m 5.18581,-12.1167 -47.107946,-0.0748 c -8.994797,-0.0143 -16.234579,2.56 -21.500888,10.59509 -4.450694,6.79063 -9.044918,23.80881 -10.166579,33.01649 -1.532758,12.57962 6.006488,20.99941 17.729873,21.6433 l 52.75674,0.0454 c 10.23038,0.47823 17.86886,-5.77155 21.55127,-13.307 5.09924,-10.43497 6.45176,-20.76875 8.45409,-32.27115 2.72378,-15.64584 -9.70662,-19.62891 -21.71656,-19.6474 l 0,0 z"
     inkscape:connector-curvature="0"
     id="_72860816"
     style="fill:#eb7d26;fill-opacity:1" /></g>
</svg>

<?xml version="1.0" encoding="UTF-8" standalone="no"?>
<!-- Creator: CorelDRAW -->
<svg
   xmlns:dc="http://purl.org/dc/elements/1.1/"
   xmlns:cc="http://web.resource.org/cc/"
   xmlns:rdf="http://www.w3.org/1999/02/22-rdf-syntax-ns#"
   xmlns:svg="http://www.w3.org/2000/svg"
   xmlns="http://www.w3.org/2000/svg"
   xmlns:sodipodi="http://sodipodi.sourceforge.net/DTD/sodipodi-0.dtd"
   xmlns:inkscape="http://www.inkscape.org/namespaces/inkscape"
   xml:space="preserve"
   width="750"
   height="356.29706"
   style="shape-rendering:geometricPrecision; text-rendering:geometricPrecision; image-rendering:optimizeQuality; fill-rule:evenodd; clip-rule:evenodd"
   viewBox="0 0 210 297"
   id="svg2"
   sodipodi:version="0.32"
   inkscape:version="0.45.1"
   sodipodi:docname="TVP_Sport_logo.svg"
   inkscape:output_extension="org.inkscape.output.svg.inkscape"
   sodipodi:docbase="C:\Users\Mistrz\Desktop"
   version="1.0"><metadata
   id="metadata16"><rdf:RDF><cc:Work
       rdf:about=""><dc:format>image/svg+xml</dc:format><dc:type
         rdf:resource="http://purl.org/dc/dcmitype/StillImage" /></cc:Work></rdf:RDF></metadata><sodipodi:namedview
   inkscape:window-height="480"
   inkscape:window-width="640"
   inkscape:pageshadow="2"
   inkscape:pageopacity="0.0"
   guidetolerance="10.0"
   gridtolerance="10.0"
   objecttolerance="10.0"
   borderopacity="1.0"
   bordercolor="#666666"
   pagecolor="#ffffff"
   id="base" />
 <defs
   id="defs4">
  <style
   type="text/css"
   id="style6">
   
    .fil1 {fill:white}
    .fil0 {fill:#004B91}
    .fil2 {fill:#F18032}
   
  </style>
 
  <metadata
   id="CorelCorpID_0Corel-Layer" />
  
 
   
   
   
   
  </defs>
 <g
   id="g2188"
   transform="matrix(0.9939795,0,0,0.9939795,17.022849,1.877745e-5)"><path
     style="fill:#eb7d26;fill-opacity:1"
     sodipodi:nodetypes="csssccscccccc"
     d="M -14.96589,102.04131 C -59.61754,109.65107 -165.81092,131.21785 -199.51468,160.93387 C -217.51242,176.8021 -208.86024,187.96535 -190.336,196.20792 C -111.25562,231.39557 -11.764745,236.55285 65.740624,236.90823 C 175.22087,237.41026 294.27874,229.23231 402.99364,202.0698 C 332.12663,233.32372 153.21631,282.54247 92.60229,298.7989 C 114.50335,288.76409 130.86367,280.69305 137.60728,274.97424 C 143.81661,269.70876 140.55106,263.511 126.74408,261.68106 C 61.273068,253.00443 -6.0367435,252.65447 -71.076328,242.79302 C -114.01783,235.33519 -157.3,225.50229 -197.86639,208.93874 C -220.3688,198.62503 -236.51032,184.00124 -217.71364,164.22094 C -186.53091,131.40579 -56.165043,105.43171 -14.966392,102.04131 L -14.96589,102.04131 z "
     class="fil2"
     id="_72860672" /><g
     transform="translate(-12.592357,0)"
     id="g2184"><polygon
       id="_72860960"
       class="fil0"
       points="61.8003,107.375 140.327,107.375 140.327,145.716 61.8003,145.716 61.8003,107.375 "
       style="fill:#00458a;fill-opacity:1"
       transform="matrix(2.6421654,0,0,2.6421654,-158.48466,-283.70251)" /><path
       id="_72860888"
       class="fil1"
       d="M 84.717946,18.968105 L 131.52576,18.968105 L 131.52576,80.84392 L 84.717946,80.84392 L 84.717946,18.968105 z M 134.96744,18.968105 L 181.77525,18.968105 L 181.77525,80.84392 L 134.96744,80.84392 L 134.96744,18.968105 z M 145.1049,29.165278 L 145.1049,71.276111 L 153.55296,71.276111 L 153.55296,58.435187 L 155.3676,58.49807 C 166.81927,58.49807 172.45131,51.070415 172.45131,43.642759 C 172.45131,36.404019 167.00713,29.165278 156.18112,29.165278 L 145.1049,29.165278 L 145.1049,29.165278 z M 153.55296,37.348329 L 156.61919,37.348329 C 161.43771,37.411212 163.87828,39.04777 164.19111,43.894558 C 163.94063,48.930261 161.06226,50.503935 156.18112,50.629966 L 153.55296,50.629966 L 153.55296,37.348329 z M 108.12198,72.597986 L 88.72294,28.661682 L 98.109497,28.661682 L 107.80889,50.881764 L 108.12198,52.20364 L 108.43482,50.881764 L 118.07159,28.661682 L 127.52076,28.661682 L 108.12198,72.597986 z M 74.079795,37.348329 L 74.079795,29.165278 L 41.602298,29.165278 L 41.602298,37.348329 L 53.366804,37.348329 L 53.366804,71.276111 L 62.377909,71.276111 L 62.377909,37.348329 L 74.079795,37.348329 L 74.079795,37.348329 z M 34.468452,18.968105 L 81.276261,18.968105 L 81.276261,80.84392 L 34.468452,80.84392 L 34.468452,18.968105 L 34.468452,18.968105 z M 31.026767,15.946525 L 185.21693,15.946525 L 185.21693,83.8655 L 31.026767,83.8655 L 31.026767,15.946525 L 31.026767,15.946525 z "
       style="fill:#ffffff" /></g><path
     style="fill:#eb7d26;fill-opacity:1"
     d="M -25.37406,151.6752 L -28.281364,166.85549 L 16.265068,166.90939 C 22.135367,166.88984 24.601955,165.13016 26.100034,160.07702 C 28.597758,151.65168 25.575529,151.61945 18.287397,151.61416 L -25.37406,151.6752 L -25.37406,151.6752 z M -37.677133,138.0551 L -52.043293,202.99028 L -36.48257,202.98393 L -30.918822,179.34105 L 17.285218,179.35584 C 30.102418,179.52653 36.56886,175.57992 39.618429,165.74208 C 44.321503,150.56971 45.974502,137.99935 26.074467,138.23133 L -37.677133,138.0551 L -37.677133,138.0551 z M 259.11091,138.27281 L 257.58043,151.3835 L 291.45046,151.32458 L 280.67281,202.35695 L 296.76967,202.30754 L 307.05725,151.50028 L 343.6493,151.46118 L 345.22028,138.26304 L 259.11091,138.27281 L 259.11091,138.27281 z M -56.156299,148.98521 C -57.510088,143.68265 -58.456069,137.89815 -70.564984,137.80066 L -117.28209,137.82021 C -125.03296,137.82021 -130.64429,139.18304 -134.72009,144.50462 C -138.70856,149.7118 -141.46498,158.49225 -140.38661,164.95842 C -138.87942,173.98511 -130.19851,176.86851 -122.19096,176.83442 L -81.573504,176.56254 C -73.649234,176.45633 -73.380906,178.1777 -74.445609,182.93201 C -75.513097,187.6998 -77.794895,190.76392 -87.520251,190.45082 L -123.35642,190.72772 C -125.57189,190.74463 -131.12475,190.46853 -135.99515,184.78153 L -148.08534,190.55968 C -143.19165,198.15775 -136.32069,202.33766 -125.33976,202.49011 L -82.428356,202.62486 C -75.184523,202.38522 -68.533036,199.12426 -65.2159,193.51917 C -62.04533,188.16191 -60.35436,180.88988 -60.468526,174.4216 C -60.603702,166.75192 -65.743189,163.48647 -79.364358,163.71686 L -120.60328,163.30522 C -126.50648,163.15752 -128.44527,162.82566 -126.90442,156.99942 C -125.55569,151.89978 -125.32052,151.51482 -119.95169,151.27227 L -78.482168,151.11559 C -74.947584,151.16156 -70.943175,150.46403 -70.025545,155.10446 L -56.156299,148.98521 L -56.156299,148.98521 z M 178.2833,151.29499 L 175.61343,167.02486 L 222.0736,166.99236 C 229.55108,166.85866 230.45529,165.5965 231.54456,158.7422 C 232.28068,154.10916 232.27486,151.05587 225.371,151.21995 L 178.2833,151.29499 L 178.2833,151.29499 z M 166.19336,138.78011 L 152.44461,203.36784 L 168.25493,203.29941 L 172.84612,179.01897 L 214.66624,178.89135 L 224.61183,202.91656 L 240.8664,202.93928 L 230.02015,178.45513 C 237.1607,178.06065 241.55089,174.83721 243.87471,170.19334 C 246.29472,165.35659 248.26566,155.88469 247.75711,150.78426 C 246.66684,139.85573 240.07864,138.83401 231.9716,138.8282 L 166.19336,138.78011 L 166.19336,138.78011 z M 119.94837,149.88909 L 79.905033,149.84761 C 74.878701,149.86822 70.18803,150.83102 67.702456,156.28868 C 65.102463,161.99814 62.325019,173.90505 61.277023,179.05094 C 59.923234,185.69942 60.957561,189.14744 69.5324,189.50968 L 113.25841,189.7887 C 118.80646,190.01249 124.98635,186.70899 126.91932,181.26798 C 128.69382,176.27349 131.13384,165.09423 131.82187,159.27803 C 132.74911,151.44057 126.82212,149.40399 119.94837,149.88909 L 119.94837,149.88909 z M 125.13418,137.77239 L 78.026234,137.69761 C 69.031437,137.68334 61.791655,140.25761 56.525346,148.2927 C 52.074652,155.08333 47.480428,172.10151 46.358767,181.30919 C 44.826009,193.88881 52.365255,202.3086 64.08864,202.95249 L 116.84538,202.99794 C 127.07576,203.47617 134.71424,197.22639 138.39665,189.69094 C 143.49589,179.25597 144.84841,168.92219 146.85074,157.41979 C 149.57452,141.77395 137.14412,137.79088 125.13418,137.77239 L 125.13418,137.77239 z "
     class="fil2"
     id="_72860816" /></g>
</svg>
